images_breeze_svg/cmd/32/replycomment.svg

<svg viewBox="0 0 32 32" xmlns="http://www.w3.org/2000/svg"><g fill="#f47750"><path d="m4 5v16l6 6v-6h3v-1h-8v-14h20v5h1v-6z"/><path d="m28 11v12l-5 5v-5h-8-2v-1-3-1.5-6.5zm-1 1h-13v5.5 1.5 3h1 12z"/></g></svg>

<?xml version="1.0" encoding="UTF-8" standalone="no"?>
<svg
   xmlns:dc="http://purl.org/dc/elements/1.1/"
   xmlns:cc="http://creativecommons.org/ns#"
   xmlns:rdf="http://www.w3.org/1999/02/22-rdf-syntax-ns#"
   xmlns:svg="http://www.w3.org/2000/svg"
   xmlns="http://www.w3.org/2000/svg"
   xmlns:sodipodi="http://sodipodi.sourceforge.net/DTD/sodipodi-0.dtd"
   xmlns:inkscape="http://www.inkscape.org/namespaces/inkscape"
   viewBox="0 0 32 32"
   version="1.1"
   id="svg4"
   sodipodi:docname="replycomment.svg"
   inkscape:version="0.92.4 (unknown)"
   inkscape:export-filename="/home/rizmut/Dokumen/Rizmut/Github/tmp/breeze/cmd/32/replycomment.png"
   inkscape:export-xdpi="96"
   inkscape:export-ydpi="96">
  <metadata
     id="metadata10">
    <rdf:RDF>
      <cc:Work
         rdf:about="">
        <dc:format>image/svg+xml</dc:format>
        <dc:type
           rdf:resource="http://purl.org/dc/dcmitype/StillImage" />
        <dc:title></dc:title>
      </cc:Work>
    </rdf:RDF>
  </metadata>
  <defs
     id="defs8" />
  <sodipodi:namedview
     pagecolor="#ffffff"
     bordercolor="#666666"
     borderopacity="1"
     objecttolerance="10"
     gridtolerance="10"
     guidetolerance="10"
     inkscape:pageopacity="0"
     inkscape:pageshadow="2"
     inkscape:window-width="1360"
     inkscape:window-height="714"
     id="namedview6"
     showgrid="true"
     inkscape:zoom="10.429825"
     inkscape:cx="10.543066"
     inkscape:cy="6.0213666"
     inkscape:window-x="0"
     inkscape:window-y="28"
     inkscape:window-maximized="1"
     inkscape:current-layer="svg4">
    <inkscape:grid
       type="xygrid"
       id="grid817" />
  </sodipodi:namedview>
  <path
     style="fill:#f47750"
     d="M 4 5 L 4 21 L 10 27 L 10 21 L 13 21 L 13 20 L 5 20 L 5 6 L 25 6 L 25 11 L 26 11 L 26 5 L 4 5 z "
     id="path2" />
  <path
     id="path819"
     d="m 28,11 v 12 l -5,5 V 23 H 15 13 V 22 19 17.5 11 Z m -1,1 H 14 v 5.5 1.5 3 h 1 12 z"
     inkscape:connector-curvature="0"
     style="fill:#f47750"
     sodipodi:nodetypes="ccccccccccccccccccc" />
</svg>
